X: 14
T: Green Mountain, The
Z: methylDragon
S: https://thesession.org/tunes/166#setting52864
R: reel
M: 4/4
L: 1/8
K: Dmaj
dB|:A~F3 AFEF|D~F3 ABde|f2df efdB|Adfd efdB|
A~F3 AFEF|D~F3 ABde|f2df efdB|1 AFEF D3B :|2 AFEF D2de ||
|:faaf bfaf|defd ~e2de|f2df efdB|Adfd efde|
faaf bfaf|defd ~e2de|f2df efdB|1 AFEF D3e:|2 AFEF D4||

